X:6
T:Barbara Brown's Favorite
M:4/4
L:1/8
C:© Paul Gitlitz 1997
R:Ragtime
B:Giblitz Fancy, Canadian Fiddle music Vol.II
N: Sub-Tiitled, "Just A Little Bit", but I'm not saying what. I like to play this one slow and sassy.
K:D
"D6"(^ef)(ef) "Bm7"d2e2|"E7"(^ef)d2"A7"dABA|"D6"(^e3f) "Bm7"=edBA|"E7"d2dA "A7"BA(^EF)|!
"D6"(^ef)(ef) "Bm7"d2e2|"E7"(^ef)d2"A7"=edBA|"D6"(^e3f) "A7"=edBA|1"D6"d4 z"A7"ABA:|2"D6"d2dA "C#7"cA"C7"=cA|!
|"Bm7"B3^A"(G7)"B3A|"Bm7"B3^A "(G7)"BABc|"D6"d2^ef "A7"=edBA|"D6"d2d2"A7"c2=c2|!
"Bm7"B3^A"(G7)"B3A|"Bm7"B3^A "(G7)"BABd|"A7"A2A2"E7(G#dim)"B2=c2|"A7"c2AA BAcA|!
"Bm7"B3^A"(G7)"B3A|"Bm7"B3A "(G7)"BAB=A|"D6"d2dA "A7"BA^EF  |"D6"D2DD EDFD|!
"G7"G3(FG3)(F|G3)(F G)(FG)(^G|"A7"A4)"E7(G#dim)"B4|"A7"c2AB cd"da capo"e2|"D"d2z2 "fine"z4|]
